logos/gtex.svg

<svg width="159" height="33" viewBox="0 0 159 33" fill="none"
    xmlns="http://www.w3.org/2000/svg">
    <g clip-path="url(#clip0_1749_831)">
        <mask id="mask0_1749_831" style="mask-type:luminance" maskUnits="userSpaceOnUse" x="0" y="0" width="274" height="33">
            <path d="M274 0H0V33H274V0Z" fill="white"/>
        </mask>
        <g mask="url(#mask0_1749_831)">
            <path d="M84.4447 10.97C81.5478 11.1989 78.8461 11.8626 79.2303 7.7416C79.366 6.27995 78.1767 5.57201 76.5605 5.62694C74.0356 5.75779 71.5055 5.75117 68.9813 5.6071C66.2857 5.40418 65.5538 6.72089 65.4441 9.02016C65.1971 14.1832 65.3297 19.3371 65.5401 24.4956C65.6346 26.8056 66.5403 28.0872 69.1872 27.8416C71.1479 27.66 73.1407 27.811 75.1182 27.8049C78.5975 27.7927 81.0492 24.0867 79.2989 21.1955C78.3673 19.6575 76.4843 20.7698 75.0526 20.5394C73.7643 20.3319 72.0749 21.0627 72.1268 18.6658C72.1634 16.9631 72.1999 15.6998 74.5205 15.9683C76.056 16.0675 77.5959 16.0787 79.1327 16.0019C84.9494 16.0019 84.9616 16.0019 84.8655 21.8226C84.8624 23.2201 84.7743 24.6162 84.6017 26.0031C83.9599 30.6108 81.9259 32.3196 77.1826 32.3318C73.8863 32.3318 70.5884 32.3455 67.292 32.3318C63.0701 32.3104 60.9904 30.7313 60.3714 26.6118C59.4144 20.113 59.4689 13.5051 60.533 7.02298C61.2115 2.78298 63.1082 1.42203 67.5222 1.37015C70.9284 1.33048 74.3376 1.31065 77.7376 1.38083C82.2675 1.47543 84.033 3.33682 83.9477 7.77364C83.8345 8.86667 84.0057 9.97042 84.4447 10.9777" fill="white"/>
            <path d="M113.039 16.9677C113.039 12.5644 113.094 8.16114 113.011 3.75941C112.979 2.08111 113.316 1.26637 115.324 1.31825C121.028 1.44793 126.737 1.43115 132.442 1.31825C134.272 1.28316 134.558 2.02466 134.636 3.58396C134.727 5.43466 133.881 5.70167 132.297 5.67115C128.348 5.59487 124.392 5.75202 120.447 5.60402C118.366 5.52621 117.898 6.25856 117.922 8.1825C117.994 14.0749 117.912 14.0764 124.056 14.0764C125.703 14.0764 127.354 14.1588 128.993 14.0535C130.753 13.9406 131.765 14.0901 131.768 16.3513C131.768 18.7344 130.502 18.5987 128.871 18.5727C125.909 18.5254 122.945 18.617 119.984 18.5361C118.543 18.4964 118.18 19.0137 118.098 20.3914C117.652 27.8049 117.608 27.8034 125.14 27.8034C127.555 27.8034 129.975 27.9056 132.381 27.7698C134.221 27.6661 134.82 28.2275 134.843 30.092C134.859 31.993 134.174 32.3958 132.389 32.3653C126.573 32.2692 120.755 32.2585 114.942 32.3653C113.145 32.4004 112.729 31.7993 112.766 30.1667C112.863 25.765 112.799 21.3618 112.799 16.9585H113.034" fill="white"/>
            <path d="M158.68 8.68611C156.291 12.1602 154.124 15.5259 151.711 18.7117C150.767 19.9582 150.609 20.4891 151.723 21.8425C154.315 24.9946 156.509 28.4641 158.889 31.8513C153.858 32.9422 153.586 32.8399 150.843 28.9234C149.68 27.2634 148.521 25.6003 147.427 24.0319C143.552 26.8545 143.603 34.1749 135.975 32.0481C138.167 28.844 140.225 25.6293 142.519 22.5809C143.86 20.7973 144.112 19.4623 142.56 17.5842C140.305 14.8562 138.428 11.8306 136.362 8.8875C141.154 7.59521 142.471 8.12464 145.632 14.0033C147.149 16.8243 148.001 16.9128 149.506 14.2352C149.977 13.3945 150.773 12.7095 151.174 11.8535C152.609 8.77002 154.899 7.57232 158.674 8.67848" fill="white"/>
            <path d="M100.472 19.2029C100.472 22.8646 100.301 26.5264 100.532 30.1744C100.684 32.669 99.1945 32.2738 97.6592 32.3593C96.0018 32.4523 95.0855 32.2814 95.1328 30.2019C95.299 22.8891 95.1526 15.5686 95.3203 8.25578C95.3706 6.1045 94.7242 5.40267 92.5835 5.61474C90.9506 5.77647 89.2841 5.56897 87.6404 5.66814C86.0532 5.76426 85.2573 5.45454 85.2695 3.60536C85.2817 1.72566 85.974 1.29693 87.767 1.31676C94.4756 1.40729 101.184 1.40729 107.893 1.31676C109.692 1.29082 110.358 1.71955 110.367 3.60536C110.377 5.43623 109.622 5.66967 108.029 5.69408C105.545 5.7307 102.16 4.55283 100.826 6.22961C99.5909 7.7828 100.451 10.9426 100.419 13.4005C100.393 15.3367 100.419 17.2744 100.419 19.2105L100.472 19.2029Z" fill="white"/>
            <path d="M46.4738 1.51807C50.6179 2.56624 52.0862 4.15758 52.164 8.0787C52.2829 14.0901 52.3988 20.1137 52.1381 26.1174C51.8926 31.7504 47.6905 32.7833 43.1424 32.7848C41.3326 32.7848 41.8876 31.8053 42.5188 30.9173C44.3751 28.6634 45.5368 25.9181 45.8624 23.0156C46.1462 19.5553 45.2203 16.1038 43.243 13.2509C42.9778 12.9879 42.7744 12.669 42.6476 12.3175C42.5209 11.9661 42.4739 11.5907 42.5101 11.2188C42.5463 10.8469 42.6648 10.4877 42.8569 10.1673C43.0491 9.84687 43.3102 9.5733 43.6212 9.36642C44.7075 8.3958 45.5366 7.17099 46.0344 5.80144C46.5322 4.43189 46.6832 2.96026 46.4738 1.51807Z" fill="white"/>
            <path d="M25.3159 23.7434C30.2376 17.1507 36.716 19.8619 42.4351 19.3843C43.9781 19.2562 43.9095 20.7819 44.0452 21.7401C44.1103 21.9791 44.1181 22.2301 44.0678 22.4727C44.0176 22.7153 43.9107 22.9426 43.756 23.136C43.6012 23.3294 43.403 23.4834 43.1774 23.5855C42.9518 23.6876 42.7053 23.7349 42.458 23.7235C36.9279 23.7586 31.3994 23.7388 25.3159 23.7388" fill="white"/>
            <path d="M41.694 25.7207C40.3065 28.3678 38.9922 29.9241 36.0069 29.7212C32.0717 29.4526 28.106 29.6205 24.154 29.5686C23.2194 29.5549 21.867 29.8554 21.7282 28.5616C21.5757 27.1412 22.7513 26.7155 24.0595 26.4256C29.7831 25.1684 35.5373 26.0533 41.694 25.7238" fill="white"/>
            <path d="M32.8142 1.30303C36.4064 1.30303 39.5823 1.26183 42.7537 1.33354C43.484 1.35033 44.783 0.765971 44.8181 2.09641C44.7976 2.58893 44.6366 3.06527 44.3539 3.46899C44.0712 3.87272 43.6789 4.1869 43.2233 4.37432C40.4651 5.63915 34.9899 4.16835 32.8142 1.2954" fill="white"/>
            <path d="M41.7459 17.189C39.3745 17.477 36.9732 17.4071 34.6226 16.9815C38.1065 12.8468 38.7057 12.8437 41.7459 17.189Z" fill="white"/>
            <path d="M26.2551 32.4066C29.2603 31.3111 32.3325 31.7658 35.4139 32.1121C32.4377 33.3037 29.3365 32.7789 26.2551 32.4066Z" fill="white"/>
            <path d="M34.8436 9.68541C31.6952 7.10083 29.989 3.05612 25.9791 1.36714L12.5954 1.32594C10.7536 1.32594 8.9148 1.3 7.07451 1.31068C1.92106 1.33967 -0.0778002 3.45891 0.236285 8.53501L0.419248 9.93411C0.431445 10.4244 0.443643 10.9146 0.45584 11.4049C0.297789 11.5922 0.194736 11.8197 0.15813 12.0621C0.121524 12.3046 0.1528 12.5524 0.248483 12.7781C0.231203 14.1207 0.213923 15.4639 0.196643 16.8075C-0.0163837 17.6046 0.0670529 18.452 0.431445 19.1922C0.371982 19.2426 0.254582 19.3173 0.26373 19.3448C0.329579 19.4695 0.403427 19.5898 0.484809 19.7049C-0.097543 22.8079 -0.158349 25.9864 0.304896 29.1095C0.451991 29.5404 0.686905 29.9361 0.994762 30.2715C1.30262 30.6069 1.67671 30.8746 2.09335 31.0578C5.21896 33.8759 9.05355 32.5912 12.6274 32.8078C18.7948 33.2991 18.7963 33.2991 18.6149 27.3824C18.6057 27.0681 18.5706 26.7537 18.5478 26.4379C18.5249 26.1221 18.4929 25.8276 18.4654 25.5225C19.1078 24.8899 19.5131 24.0554 19.6135 23.1591L24.677 18.1746C27.8133 16.0233 30.9587 13.8857 34.0767 11.707C34.7598 11.2295 35.8377 10.5078 34.8391 9.69152M19.022 10.343C17.9547 10.343 16.8798 10.2896 15.8125 10.314C16.8798 10.2911 17.9471 10.343 19.022 10.343ZM23.3399 10.3308C22.9297 10.3094 22.5196 10.3018 22.1094 10.3003C22.5211 10.3003 22.9313 10.3094 23.3399 10.3308Z" fill="white"/>
        </g>
    </g>
    <defs>
        <clipPath id="clip0_1749_831">
            <rect width="159" height="33" fill="white"/>
        </clipPath>
    </defs>
</svg>

<svg xmlns="http://www.w3.org/2000/svg" width="159" height="33" fill="none" viewBox="0 0 159 33">
    <g clip-path="url(#a)">
        <mask id="b" width="274" height="33" x="0" y="0" maskUnits="userSpaceOnUse" style="mask-type:luminance">
            <path fill="currentColor" d="M274 0H0v33h274z"/>
        </mask>
        <g fill="currentColor" mask="url(#b)">
            <path d="M84.445 10.97c-2.897.229-5.599.893-5.215-3.228.136-1.462-1.053-2.17-2.67-2.115-2.524.13-5.055.124-7.579-.02-2.695-.203-3.427 1.114-3.537 3.413-.247 5.163-.114 10.317.096 15.476.095 2.31 1 3.591 3.647 3.346 1.96-.182 3.954-.031 5.931-.037 3.48-.012 5.931-3.718 4.18-6.61-.93-1.538-2.814-.425-4.245-.656-1.289-.207-2.978.524-2.926-1.873.036-1.703.073-2.966 2.394-2.698 1.535.1 3.075.11 4.612.034 5.816 0 5.829 0 5.733 5.82a35 35 0 0 1-.264 4.181c-.642 4.608-2.676 6.317-7.42 6.329-3.296 0-6.594.014-9.89 0-4.222-.022-6.302-1.6-6.92-5.72a63.7 63.7 0 0 1 .161-19.589c.678-4.24 2.575-5.601 6.99-5.653 3.405-.04 6.815-.06 10.215.01 4.53.095 6.295 1.957 6.21 6.394a6.4 6.4 0 0 0 .497 3.204M113.039 16.968c0-4.404.055-8.807-.028-13.209-.032-1.678.305-2.493 2.313-2.44 5.704.129 11.413.112 17.118 0 1.83-.036 2.116.706 2.194 2.265.091 1.85-.755 2.118-2.339 2.087-3.949-.076-7.905.081-11.85-.067-2.081-.078-2.549.655-2.525 2.578.072 5.893-.01 5.894 6.134 5.894 1.647 0 3.298.083 4.937-.023 1.76-.112 2.772.037 2.775 2.298 0 2.383-1.266 2.248-2.897 2.222-2.962-.048-5.926.044-8.887-.037-1.441-.04-1.804.478-1.886 1.855-.446 7.414-.49 7.412 7.042 7.412 2.415 0 4.835.103 7.241-.033 1.84-.104 2.439.457 2.462 2.322.016 1.901-.669 2.304-2.454 2.273a500 500 0 0 0-17.447 0c-1.797.035-2.213-.566-2.176-2.198.097-4.402.033-8.805.033-13.208h.235M158.68 8.686c-2.389 3.474-4.556 6.84-6.969 10.026-.944 1.246-1.102 1.777.012 3.13 2.592 3.153 4.786 6.622 7.166 10.01-5.031 1.09-5.303.988-8.046-2.929-1.163-1.66-2.322-3.323-3.416-4.891-3.875 2.823-3.824 10.143-11.452 8.016 2.192-3.204 4.25-6.419 6.544-9.467 1.341-1.784 1.593-3.119.041-4.997-2.255-2.728-4.132-5.753-6.198-8.696 4.792-1.293 6.109-.763 9.27 5.115 1.517 2.821 2.369 2.91 3.874.232.471-.84 1.267-1.525 1.668-2.381 1.435-3.084 3.725-4.282 7.5-3.176M100.472 19.203c0 3.662-.171 7.323.06 10.971.152 2.495-1.337 2.1-2.873 2.185-1.657.093-2.574-.078-2.526-2.157.166-7.313.02-14.633.187-21.946.05-2.152-.596-2.853-2.736-2.641-1.633.161-3.3-.046-4.944.053-1.587.096-2.383-.213-2.37-2.063.012-1.88.704-2.308 2.497-2.288q10.063.135 20.126 0c1.799-.026 2.465.403 2.474 2.288.01 1.831-.745 2.065-2.338 2.09-2.484.036-5.869-1.142-7.203.535-1.235 1.553-.375 4.713-.407 7.17-.026 1.937 0 3.874 0 5.81zM46.474 1.518c4.144 1.048 5.612 2.64 5.69 6.56.119 6.012.235 12.036-.026 18.04-.245 5.632-4.447 6.665-8.996 6.667-1.81 0-1.254-.98-.623-1.868 1.856-2.254 3.018-4.999 3.343-7.901a15 15 0 0 0-2.619-9.765 2.518 2.518 0 0 1 .378-3.885 8.82 8.82 0 0 0 2.853-7.848"/>
            <path d="M25.316 23.743c4.922-6.592 11.4-3.881 17.12-4.359 1.542-.128 1.474 1.398 1.61 2.356a1.573 1.573 0 0 1-1.588 1.984c-5.53.035-11.059.015-17.142.015M41.694 25.72c-1.388 2.648-2.702 4.204-5.687 4.001-3.935-.268-7.901-.1-11.853-.152-.935-.014-2.287.286-2.426-1.007-.152-1.42 1.023-1.847 2.331-2.136 5.724-1.258 11.478-.373 17.635-.702M32.814 1.303c3.592 0 6.768-.041 9.94.03.73.017 2.029-.567 2.064.763a2.58 2.58 0 0 1-1.595 2.278c-2.758 1.265-8.233-.206-10.409-3.079M41.746 17.189a23.9 23.9 0 0 1-7.123-.207c3.483-4.135 4.083-4.138 7.123.207M26.255 32.407c3.005-1.096 6.078-.641 9.159-.295-2.976 1.192-6.078.667-9.159.295"/>
            <path d="M34.844 9.685c-3.149-2.584-4.855-6.629-8.865-8.318l-13.384-.041c-1.841 0-3.68-.026-5.52-.015C1.92 1.34-.078 3.459.236 8.535l.183 1.4.037 1.47a1.33 1.33 0 0 0-.208 1.373l-.051 4.03a3.4 3.4 0 0 0 .234 2.384c-.059.05-.176.125-.167.153q.1.188.22.36a28.4 28.4 0 0 0-.18 9.405 3.3 3.3 0 0 0 1.79 1.948c3.125 2.818 6.96 1.533 10.533 1.75 6.168.491 6.17.491 5.988-5.426-.01-.314-.044-.628-.067-.944s-.055-.61-.083-.915a3.93 3.93 0 0 0 1.148-2.364l5.064-4.984c3.136-2.152 6.282-4.29 9.4-6.468.683-.478 1.76-1.2.762-2.015m-15.817.651c-1.067 0-2.142-.053-3.21-.029 1.068-.023 2.135.029 3.21.029m4.318-.012"/>
        </g>
    </g>
    <defs>
        <clipPath id="a">
            <path fill="currentColor" d="M0 0h159v33H0z"/>
        </clipPath>
    </defs>
</svg>
